extensions/content/explorer/asset/icons/menu/svg/cut.svg

<?xml version="1.0" encoding="UTF-8" standalone="no"?>
<svg
   xmlns:dc="http://purl.org/dc/elements/1.1/"
   xmlns:cc="http://creativecommons.org/ns#"
   xmlns:rdf="http://www.w3.org/1999/02/22-rdf-syntax-ns#"
   xmlns:svg="http://www.w3.org/2000/svg"
   xmlns="http://www.w3.org/2000/svg"
   xmlns:sodipodi="http://sodipodi.sourceforge.net/DTD/sodipodi-0.dtd"
   xmlns:inkscape="http://www.inkscape.org/namespaces/inkscape"
   id="cut"
   width="100%"
   height="100%"
   viewBox="0 0 16 16"
   xml:space="preserve">
   <defs
     id="defs39" /><sodipodi:namedview
     pagecolor="#ffffff"
     bordercolor="#666666"
     borderopacity="1"
     objecttolerance="10"
     gridtolerance="10"
     guidetolerance="10"
     inkscape:pageopacity="0"
     inkscape:pageshadow="2"
     inkscape:window-width="1313"
     inkscape:window-height="780"
     id="namedview37"
     showgrid="false"
     inkscape:zoom="4.8739812"
     inkscape:cx="-16.479309"
     inkscape:cy="44.791835"
     inkscape:window-x="0"
     inkscape:window-y="23"
     inkscape:window-maximized="0"
     inkscape:current-layer="cut" /><g
     id="g3"
     transform="matrix(0.04130505,0,0,0.04130505,-2.7728776e-5,1.9708023e-5)"><path
       d="M 280.16016,0.93164062 193.32812,152.81445 106.48828,0.94335938 100.22461,8.2128906 C 99.292857,9.2783207 77.730915,34.773632 90.865234,57.740234 96.232289,67.117615 138.80234,145.16995 167.54102,197.92969 l -32.3379,56.5664 c -11.03139,-4.48618 -23.69293,-5.12653 -36.173823,-1.71875 -18.33677,5.00194 -34.762219,18.16229 -45.068359,36.12696 -19.366288,33.85234 -11.557677,74.88031 17.396484,91.44336 8.084499,4.65377 17.045937,7.01367 26.632812,7.01367 5.265296,0 10.735046,-0.41282 15.937496,-2.18555 31.03914,-10.56152 46.93615,-35.93625 54.55079,-61.98242 0.32621,-1.1203 15.64003,-63.17493 24.1914,-76.69531 0,0 0.26615,-0.48374 0.6582,-1.20899 0.38907,0.72525 0.65821,1.20899 0.65821,1.20899 8.55037,13.52038 23.8622,75.57501 24.1914,76.69531 7.60167,26.04518 23.51269,51.42688 54.54883,61.98242 5.19946,1.77273 10.66925,2.18555 15.93555,2.18555 9.59087,0 18.54519,-2.3599 26.63867,-7.01367 28.9372,-16.58101 36.73813,-57.60261 17.38281,-91.46094 -10.31611,-17.95868 -26.73537,-31.11317 -45.07812,-36.1211 -12.47192,-3.40877 -25.14165,-2.76647 -36.16406,1.72071 L 219.10547,197.91797 C 247.84215,145.16421 290.40335,67.113919 295.77539,57.726562 308.9127,34.762952 287.3466,9.2675996 286.42383,8.2011719 L 280.16016,0.93164062 Z M 114.84961,279.48633 c 4.47435,-0.007 8.69778,1.04222 12.4082,3.16211 15.1335,8.67807 18.13007,32.03302 6.67969,52.05273 -6.43049,11.21994 -16.7505,19.69091 -27.56641,22.63281 -2.84613,0.76715 -5.65041,1.15625 -8.335934,1.15625 -4.490169,0 -8.630718,-1.09143 -12.296875,-3.19335 -15.146465,-8.65014 -18.16639,-32.02471 -6.707031,-52.06836 6.526258,-11.36858 16.582238,-19.60496 27.55078,-22.59375 2.80798,-0.75942 5.58297,-1.14429 8.26758,-1.14844 z m 156.93555,0.0176 c 2.6844,0.004 5.45764,0.38881 8.26562,1.15234 10.97453,2.97682 21.02556,11.21328 27.54883,22.58984 11.46036,20.03767 8.44829,43.40065 -6.70117,52.05079 -3.67314,2.10791 -7.80567,3.19921 -12.29883,3.19921 -2.68353,0 -5.49288,-0.39496 -8.33203,-1.16211 -10.81891,-2.93492 -21.14086,-11.40701 -27.56836,-22.62695 -11.45337,-20.0257 -8.45364,-43.374 6.67187,-52.03711 3.71417,-2.12238 7.94006,-3.17321 12.41407,-3.16601 z"
       transform="matrix(1.0024121,0,0,1.0024121,-0.10449034,-0.93434523)"
       id="path5"
       inkscape:connector-curvature="0"
       fill="currentColor" /></g><g
     id="g7"
     transform="translate(0,-371.36301)" /><g
     id="g9"
     transform="translate(0,-371.36301)" /><g
     id="g11"
     transform="translate(0,-371.36301)" /><g
     id="g13"
     transform="translate(0,-371.36301)" /><g
     id="g15"
     transform="translate(0,-371.36301)" /><g
     id="g17"
     transform="translate(0,-371.36301)" /><g
     id="g19"
     transform="translate(0,-371.36301)" /><g
     id="g21"
     transform="translate(0,-371.36301)" /><g
     id="g23"
     transform="translate(0,-371.36301)" /><g
     id="g25"
     transform="translate(0,-371.36301)" /><g
     id="g27"
     transform="translate(0,-371.36301)" /><g
     id="g29"
     transform="translate(0,-371.36301)" /><g
     id="g31"
     transform="translate(0,-371.36301)" /><g
     id="g33"
     transform="translate(0,-371.36301)" /><g
     id="g35"
     transform="translate(0,-371.36301)" /></svg>

<?xml version="1.0" encoding="UTF-8" standalone="no"?>

<svg
   xmlns:dc="http://purl.org/dc/elements/1.1/"
   xmlns:cc="http://creativecommons.org/ns#"
   xmlns:rdf="http://www.w3.org/1999/02/22-rdf-syntax-ns#"
   xmlns:svg="http://www.w3.org/2000/svg"
   xmlns="http://www.w3.org/2000/svg"
   xmlns:sodipodi="http://sodipodi.sourceforge.net/DTD/sodipodi-0.dtd"
   xmlns:inkscape="http://www.inkscape.org/namespaces/inkscape"
   version="1.1"
   id="cut"
   x="0px"
   y="0px"
   width="100%"
   height="100%"
   viewBox="0 0 387.363 387.363"
   style="enable-background:new 0 0 387.363 387.363;"
   xml:space="preserve"><defs
     id="defs39" /><sodipodi:namedview
     pagecolor="#ffffff"
     bordercolor="#666666"
     borderopacity="1"
     objecttolerance="10"
     gridtolerance="10"
     guidetolerance="10"
     inkscape:pageopacity="0"
     inkscape:pageshadow="2"
     inkscape:window-width="1313"
     inkscape:window-height="780"
     id="namedview37"
     showgrid="false"
     inkscape:zoom="0.60924765"
     inkscape:cx="-104.22691"
     inkscape:cy="193.6815"
     inkscape:window-x="0"
     inkscape:window-y="23"
     inkscape:window-maximized="0"
     inkscape:current-layer="Capa_1" /><g
     id="g3"
     transform="matrix(0.99759373,0,0,0.99759373,0.10423891,0.93209694)"><path
       fill="currentColor"
       d="M 280.16016 0.93164062 L 193.32812 152.81445 L 106.48828 0.94335938 L 100.22461 8.2128906 C 99.292857 9.2783207 77.730915 34.773632 90.865234 57.740234 C 96.232289 67.117615 138.80234 145.16995 167.54102 197.92969 L 135.20312 254.49609 C 124.17173 250.00991 111.51019 249.36956 99.029297 252.77734 C 80.692527 257.77928 64.267078 270.93963 53.960938 288.9043 C 34.59465 322.75664 42.403261 363.78461 71.357422 380.34766 C 79.441921 385.00143 88.403359 387.36133 97.990234 387.36133 C 103.25553 387.36133 108.72528 386.94851 113.92773 385.17578 C 144.96687 374.61426 160.86388 349.23953 168.47852 323.19336 C 168.80473 322.07306 184.11855 260.01843 192.66992 246.49805 C 192.66992 246.49805 192.93607 246.01431 193.32812 245.28906 C 193.71719 246.01431 193.98633 246.49805 193.98633 246.49805 C 202.5367 260.01843 217.84853 322.07306 218.17773 323.19336 C 225.7794 349.23854 241.69042 374.62024 272.72656 385.17578 C 277.92602 386.94851 283.39581 387.36133 288.66211 387.36133 C 298.25298 387.36133 307.2073 385.00143 315.30078 380.34766 C 344.23798 363.76665 352.03891 322.74505 332.68359 288.88672 C 322.36748 270.92804 305.94822 257.77355 287.60547 252.76562 C 275.13355 249.35685 262.46382 249.99915 251.44141 254.48633 L 219.10547 197.91797 C 247.84215 145.16421 290.40335 67.113919 295.77539 57.726562 C 308.9127 34.762952 287.3466 9.2675996 286.42383 8.2011719 L 280.16016 0.93164062 z M 114.84961 279.48633 C 119.32396 279.47941 123.54739 280.52855 127.25781 282.64844 C 142.39131 291.32651 145.38788 314.68146 133.9375 334.70117 C 127.50701 345.92111 117.187 354.39208 106.37109 357.33398 C 103.52496 358.10113 100.72068 358.49023 98.035156 358.49023 C 93.544987 358.49023 89.404438 357.3988 85.738281 355.29688 C 70.591816 346.64674 67.571891 323.27217 79.03125 303.22852 C 85.557508 291.85994 95.613488 283.62356 106.58203 280.63477 C 109.39001 279.87535 112.165 279.49048 114.84961 279.48633 z M 271.78516 279.50391 C 274.46956 279.50823 277.2428 279.89272 280.05078 280.65625 C 291.02531 283.63307 301.07634 291.86953 307.59961 303.24609 C 319.05997 323.28376 316.0479 346.64674 300.89844 355.29688 C 297.2253 357.40479 293.09277 358.49609 288.59961 358.49609 C 285.91608 358.49609 283.10673 358.10113 280.26758 357.33398 C 269.44867 354.39906 259.12672 345.92697 252.69922 334.70703 C 241.24585 314.68133 244.24558 291.33303 259.37109 282.66992 C 263.08526 280.54754 267.31115 279.49671 271.78516 279.50391 z "
       transform="matrix(1.0024121,0,0,1.0024121,-0.10449034,-0.93434523)"
       id="path5" /></g><g
     id="g7" /><g
     id="g9" /><g
     id="g11" /><g
     id="g13" /><g
     id="g15" /><g
     id="g17" /><g
     id="g19" /><g
     id="g21" /><g
     id="g23" /><g
     id="g25" /><g
     id="g27" /><g
     id="g29" /><g
     id="g31" /><g
     id="g33" /><g
     id="g35" /></svg>
